svg/baby_male_0609m_outline.svg

<svg width="48" height="48" viewBox="0 0 48 48" fill="none" xmlns="http://www.w3.org/2000/svg">
<path fill-rule="evenodd" clip-rule="evenodd" d="M20.6478 3.99799C19.5838 4.04489 18.4248 4.45398 17.7088 5.45507C16.7218 7.12385 17.7818 7.96164 19.2638 8.47653C15.0408 9.76971 11.7619 12.7089 10.4059 16.4158C10.1079 16.3478 9.80229 16.3138 9.49599 16.3118C7.18332 16.3118 5.30854 18.1868 5.30854 20.4998C5.30854 22.8128 7.18332 24.6877 9.49599 24.6877C9.88719 24.6867 10.2759 24.6317 10.6519 24.5227C12.7429 29.3507 18.0558 32.5496 23.9937 32.5566C26.8947 32.5496 29.7236 31.7746 32.1046 30.3357C33.3996 31.7456 35.2256 32.5506 37.1405 32.5546C40.9255 32.5546 43.9935 29.4857 43.9935 25.7007C43.9905 24.1977 43.4935 22.7378 42.5795 21.5448C42.6685 21.2038 42.7145 20.8528 42.7165 20.4998C42.7165 18.1868 40.8415 16.3118 38.5285 16.3118C38.2155 16.3138 37.9035 16.3508 37.5995 16.4218C35.7236 11.2659 30.2186 7.76124 23.9937 7.75974C23.6357 7.76104 23.2787 7.77404 22.9217 7.79874C22.0437 7.15215 17.9298 7.33954 19.6878 5.74796C21.2287 4.48268 23.4027 5.10667 20.5508 6.54295C24.8727 5.55087 22.9907 3.89509 20.6478 3.99799ZM24.3237 8.26753C31.6256 8.27123 36.4186 13.3809 37.2865 17.0448C39.0925 16.4188 42.1275 17.3898 42.1925 20.5308C42.1925 20.7028 42.1765 20.8708 42.1495 21.0348C40.8555 19.6428 39.0415 18.8498 37.1405 18.8478C33.3556 18.8488 30.2886 21.9168 30.2886 25.7007C30.2916 27.2277 30.8036 28.7097 31.7436 29.9117C29.4396 31.3456 26.8387 32.1576 24.6497 32.0346C17.6658 32.0306 12.5189 28.3907 10.9449 23.9157C8.8299 24.6437 6.23493 23.7157 5.83004 20.5428C5.89994 18.1798 8.34651 16.0248 10.7029 17.0818C12.3389 12.3269 17.0668 8.27493 24.3237 8.26753ZM20.0138 17.0118C19.1798 17.0108 18.5038 17.6858 18.5038 18.5198C18.5038 19.3528 19.1798 20.0278 20.0138 20.0268C20.8457 20.0268 21.5207 19.3518 21.5207 18.5198C21.5207 17.6868 20.8457 17.0118 20.0138 17.0118ZM28.0137 17.0118C27.1797 17.0108 26.5037 17.6858 26.5037 18.5198C26.5037 19.3528 27.1797 20.0278 28.0137 20.0268C28.8456 20.0268 29.5206 19.3518 29.5206 18.5198C29.5206 17.6868 28.8456 17.0118 28.0137 17.0118ZM37.1405 19.2828C39.0225 19.2858 40.8095 20.1148 42.0265 21.5508L42.0325 21.5568C42.1535 21.6998 42.2685 21.8488 42.3765 22.0018C43.1435 23.0827 43.5575 24.3747 43.5605 25.7007C43.5605 29.2457 40.6865 32.1186 37.1425 32.1186C35.3776 32.1166 33.6916 31.3886 32.4796 30.1047C32.4716 30.0957 32.4636 30.0857 32.4546 30.0757C32.3366 29.9507 32.2226 29.8197 32.1146 29.6857L32.1126 29.6877C31.2146 28.5527 30.7256 27.1477 30.7266 25.7007C30.7266 22.1578 33.5976 19.2848 37.1405 19.2828ZM36.8025 19.6558C35.5886 19.6938 34.4686 20.3258 33.8116 21.3478C32.7136 23.0577 33.2126 25.3337 34.9236 26.4317C35.5986 26.8617 36.3946 27.0607 37.1925 26.9977L37.8115 29.8357L36.3766 29.4837L38.5995 31.5406L39.8255 28.7297L38.6615 29.6347L38.0485 26.8317C38.8555 26.5687 39.5465 26.0357 40.0055 25.3217C41.1025 23.6117 40.6075 21.3358 38.8975 20.2378C38.2745 19.8378 37.5435 19.6348 36.8025 19.6558ZM36.9095 20.5268C37.4465 20.5268 37.9725 20.6808 38.4255 20.9708C39.7305 21.8078 40.1085 23.5457 39.2705 24.8517C38.4335 26.1567 36.6976 26.5347 35.3926 25.6967C34.0876 24.8587 33.7106 23.1227 34.5486 21.8178C35.0656 21.0138 35.9536 20.5268 36.9095 20.5268ZM19.1658 23.6447C18.9188 23.6667 18.6958 23.9087 18.7288 24.3027C18.9318 26.2807 21.2367 27.8117 24.0137 27.8137C26.7917 27.8137 29.0986 26.2817 29.3026 24.3027C28.1317 25.9557 26.3007 27.0367 24.0137 27.0837C21.7997 27.0827 19.9518 25.8767 19.7518 24.3027C19.6848 23.8187 19.4128 23.6217 19.1658 23.6447ZM7.86691 35.0956C7.03882 35.0956 6.40453 35.3696 5.96263 35.9196C5.52424 36.4696 5.30444 37.2766 5.30444 38.3376V39.7355C5.31484 40.7555 5.53984 41.5375 5.97823 42.0835C6.41663 42.6295 7.04852 42.9035 7.87671 42.9035C8.7152 42.9035 9.35189 42.6245 9.78679 42.0675C10.2217 41.5115 10.4387 40.7085 10.4387 39.6575V38.2596C10.4287 37.2396 10.2057 36.4586 9.76729 35.9156C9.32889 35.3696 8.695 35.0956 7.86691 35.0956ZM24.2967 35.0956C23.4687 35.0956 22.8337 35.3696 22.3927 35.9196C21.9537 36.4696 21.7337 37.2766 21.7337 38.3376V39.7355C21.7447 40.7555 21.9697 41.5375 22.4077 42.0835C22.8467 42.6295 23.4797 42.9035 24.3087 42.9035C25.1467 42.9035 25.7837 42.6245 26.2187 42.0675C26.6537 41.5115 26.8707 40.7085 26.8707 39.6575V38.2596C26.8607 37.2396 26.6357 36.4586 26.1967 35.9156C25.7587 35.3696 25.1247 35.0956 24.2967 35.0956ZM30.3786 35.0956C29.8916 35.0956 29.4516 35.2116 29.0616 35.4446C28.6727 35.6746 28.3677 35.9976 28.1477 36.4156C27.9327 36.8296 27.8257 37.2856 27.8257 37.7826C27.8257 38.5656 28.0277 39.1895 28.4317 39.6515C28.8346 40.1115 29.3726 40.3415 30.0446 40.3415C30.5696 40.3415 31.0286 40.1475 31.4216 39.7615C31.3136 40.9335 30.6046 41.5495 29.2926 41.6085L28.9586 41.6145V42.8725L29.3276 42.8665C30.4826 42.8175 31.3756 42.4325 32.0056 41.7085C32.6356 40.9845 32.9506 39.9885 32.9506 38.7226V38.1636C32.9476 37.5586 32.8386 37.0216 32.6226 36.5526C32.4066 36.0826 32.1046 35.7226 31.7146 35.4726C31.3246 35.2216 30.8796 35.0956 30.3786 35.0956ZM15.3048 35.1226C14.5358 35.1266 13.8578 35.2996 13.2728 35.6476C12.6919 35.9926 12.2469 36.4816 11.9339 37.1146C11.6239 37.7446 11.4689 38.4716 11.4689 39.2965V39.8395C11.4689 40.7685 11.7139 41.5115 12.2049 42.0675C12.6989 42.6245 13.3458 42.9035 14.1458 42.9035C14.6408 42.9035 15.0808 42.7925 15.4708 42.5695C15.8638 42.3475 16.1668 42.0365 16.3788 41.6365C16.5948 41.2365 16.7028 40.7885 16.7028 40.2945C16.7028 39.5215 16.5088 38.8985 16.1188 38.4256C15.7288 37.9526 15.2038 37.7166 14.5428 37.7166C13.9268 37.7166 13.4168 37.9206 13.0138 38.3316C13.0968 37.7196 13.3458 37.2406 13.7598 36.8956C14.1768 36.5516 14.7258 36.3756 15.4078 36.3646H15.5548V35.1226H15.3048ZM34.1926 35.2006V42.7985H35.7596V40.7225L35.6016 37.1426L37.6475 42.7985H38.7245L40.7745 37.1366L40.6185 40.7225V42.7985H42.1885V35.2006H40.1325L38.1905 40.7125L36.2396 35.2006H34.1926ZM30.3666 36.3116C30.6936 36.3116 30.9556 36.4526 31.1496 36.7336C31.3446 37.0156 31.4426 37.4136 31.4426 37.9256V38.5466C31.3526 38.7236 31.2176 38.8745 31.0406 38.9995C30.8666 39.1245 30.6576 39.1875 30.4136 39.1875C30.0696 39.1875 29.8026 39.0545 29.6106 38.7905C29.4226 38.5226 29.3276 38.1816 29.3276 37.7676C29.3276 37.3496 29.4256 37.0046 29.6206 36.7296C29.8156 36.4516 30.0636 36.3116 30.3666 36.3116ZM7.86691 36.3156C8.23221 36.3156 8.4991 36.4606 8.6696 36.7496C8.8436 37.0346 8.9313 37.4926 8.9313 38.1226V39.9295C8.9244 40.5245 8.839 40.9645 8.6755 41.2535C8.5119 41.5425 8.24551 41.6875 7.87671 41.6875C7.50432 41.6875 7.23272 41.5375 7.06222 41.2375C6.89522 40.9355 6.81222 40.4745 6.81222 39.8545V38.0076C6.82262 37.4266 6.91082 37.0016 7.07782 36.7296C7.24832 36.4556 7.51202 36.3156 7.86691 36.3156ZM24.2967 36.3156C24.6617 36.3156 24.9307 36.4606 25.1017 36.7496C25.2757 37.0346 25.3607 37.4926 25.3607 38.1226V39.9295C25.3537 40.5245 25.2707 40.9645 25.1067 41.2535C24.9437 41.5425 24.6767 41.6875 24.3087 41.6875C23.9357 41.6875 23.6647 41.5375 23.4937 41.2375C23.3267 40.9355 23.2437 40.4745 23.2437 39.8545V38.0076C23.2547 37.4266 23.3427 37.0016 23.5097 36.7296C23.6797 36.4556 23.9417 36.3156 24.2967 36.3156ZM14.0838 38.9275C14.4248 38.9275 14.6968 39.0545 14.8978 39.3085C15.0998 39.5625 15.2008 39.8955 15.2008 40.3105C15.2008 40.7175 15.0998 41.0485 14.8978 41.3065C14.6998 41.5605 14.4388 41.6875 14.1148 41.6875C13.7568 41.6875 13.4778 41.5465 13.2788 41.2655C13.0808 40.9795 12.9818 40.5845 12.9818 40.0795V39.6205C13.0758 39.4115 13.2218 39.2435 13.4198 39.1185C13.6178 38.9895 13.8398 38.9275 14.0838 38.9275ZM17.6578 38.9375V40.1535H20.5978V38.9375H17.6578Z" fill="#333333"/>
</svg>

<?xml version="1.0" encoding="UTF-8" standalone="no"?>
<!-- Created with Inkscape (http://www.inkscape.org/) -->
<svg id="svg8" xmlns:rdf="http://www.w3.org/1999/02/22-rdf-syntax-ns#" xmlns="http://www.w3.org/2000/svg" xmlns:osb="http://www.openswatchbook.org/uri/2009/osb" height="48" width="48" version="1.1" xmlns:cc="http://creativecommons.org/ns#" viewBox="0 0 12.7 12.7" xmlns:dc="http://purl.org/dc/elements/1.1/">
 <title id="title4753">UIO-icon</title>
 <metadata id="metadata5">
  <rdf:RDF>
   <cc:Work rdf:about="">
    <dc:format>image/svg+xml</dc:format>
    <dc:type rdf:resource="http://purl.org/dc/dcmitype/StillImage"/>
    <dc:title>UIO-icon</dc:title>
    <dc:creator>
     <cc:Agent>
      <dc:title>Joaquín Urbano</dc:title>
     </cc:Agent>
    </dc:creator>
    <dc:rights>
     <cc:Agent>
      <dc:title>GPL</dc:title>
     </cc:Agent>
    </dc:rights>
   </cc:Work>
  </rdf:RDF>
 </metadata>
 <g id="layer1" transform="translate(0,-284.3)">
  <path id="circle5040" d="m20.648 3.998c-1.064 0.0469-2.223 0.456-2.939 1.4571-0.987 1.6688 0.073 2.5066 1.555 3.0215-4.223 1.2932-7.502 4.2324-8.858 7.9394-0.298-0.068-0.6036-0.102-0.9099-0.104-2.3127 0-4.1875 1.875-4.1875 4.188s1.8748 4.188 4.1875 4.188c0.3912-0.001 0.7799-0.056 1.1559-0.165 2.091 4.828 7.404 8.027 13.342 8.034 2.901-0.007 5.73-0.782 8.111-2.221 1.295 1.41 3.121 2.215 5.036 2.219 3.785 0 6.853-3.069 6.853-6.854-0.003-1.503-0.5-2.963-1.414-4.156 0.089-0.341 0.135-0.692 0.137-1.045 0-2.313-1.875-4.188-4.188-4.188-0.313 0.002-0.625 0.039-0.929 0.11-1.876-5.156-7.381-8.6607-13.606-8.6622-0.358 0.0013-0.715 0.0143-1.072 0.039-0.878-0.6466-4.992-0.4592-3.234-2.0508 1.541-1.2653 3.715-0.6413 0.863 0.795 4.322-0.9921 2.44-2.6479 0.097-2.545zm3.676 4.2696c7.302 0.0037 12.095 5.1134 12.963 8.7774 1.806-0.626 4.841 0.345 4.906 3.486 0 0.172-0.016 0.34-0.043 0.504-1.294-1.392-3.108-2.185-5.009-2.187-3.785 0.001-6.852 3.069-6.852 6.853 0.003 1.527 0.515 3.009 1.455 4.211-2.304 1.434-4.905 2.246-7.094 2.123-6.984-0.004-12.131-3.644-13.705-8.119-2.115 0.728-4.71-0.2-5.1149-3.373 0.0699-2.363 2.5165-4.518 4.8729-3.461 1.636-4.755 6.364-8.807 13.621-8.8144zm-4.31 8.7444c-0.834-0.001-1.51 0.674-1.51 1.508 0 0.833 0.676 1.508 1.51 1.507 0.832 0 1.507-0.675 1.507-1.507 0-0.833-0.675-1.508-1.507-1.508zm8 0c-0.834-0.001-1.51 0.674-1.51 1.508 0 0.833 0.676 1.508 1.51 1.507 0.832 0 1.507-0.675 1.507-1.507 0-0.833-0.675-1.508-1.507-1.508zm9.127 2.271c1.882 0.003 3.669 0.832 4.886 2.268l0.006 0.006c0.121 0.143 0.236 0.292 0.344 0.445 0.767 1.081 1.181 2.373 1.184 3.699 0 3.545-2.874 6.418-6.418 6.418-1.765-0.002-3.451-0.73-4.663-2.014-0.008-0.009-0.016-0.019-0.025-0.029-0.118-0.125-0.232-0.256-0.34-0.39l-0.002 0.002c-0.898-1.135-1.387-2.54-1.386-3.987 0-3.543 2.871-6.416 6.414-6.418zm-0.338 0.373c-1.214 0.038-2.334 0.67-2.991 1.692-1.098 1.71-0.599 3.986 1.112 5.084 0.675 0.43 1.471 0.629 2.269 0.566l0.619 2.838-1.435-0.352 2.223 2.057 1.226-2.811-1.164 0.905-0.613-2.803c0.807-0.263 1.498-0.796 1.957-1.51 1.097-1.71 0.602-3.986-1.108-5.084-0.623-0.4-1.354-0.603-2.095-0.582zm0.107 0.871c0.537 0 1.063 0.154 1.516 0.444 1.305 0.837 1.683 2.575 0.845 3.881-0.837 1.305-2.573 1.683-3.878 0.845s-1.682-2.574-0.844-3.879c0.517-0.804 1.405-1.291 2.361-1.291zm-17.744 3.118c-0.247 0.022-0.47 0.264-0.437 0.658 0.203 1.978 2.508 3.509 5.285 3.511 2.778 0 5.085-1.532 5.289-3.511-1.171 1.653-3.002 2.734-5.289 2.781-2.214-0.001-4.062-1.207-4.262-2.781-0.067-0.484-0.339-0.681-0.586-0.658zm-11.299 11.451c-0.8281 0-1.4624 0.274-1.9043 0.824-0.4384 0.55-0.6582 1.357-0.6582 2.418v1.398c0.0104 1.02 0.2354 1.802 0.6738 2.348s1.0703 0.82 1.8985 0.82c0.8385 0 1.4752-0.279 1.9101-0.836 0.4349-0.556 0.6519-1.359 0.6519-2.41v-1.398c-0.01-1.02-0.233-1.801-0.6714-2.344-0.4384-0.546-1.0723-0.82-1.9004-0.82zm16.43 0c-0.828 0-1.463 0.274-1.904 0.824-0.439 0.55-0.659 1.357-0.659 2.418v1.398c0.011 1.02 0.236 1.802 0.674 2.348 0.439 0.546 1.072 0.82 1.901 0.82 0.838 0 1.475-0.279 1.91-0.836 0.435-0.556 0.652-1.359 0.652-2.41v-1.398c-0.01-1.02-0.235-1.801-0.674-2.344-0.438-0.546-1.072-0.82-1.9-0.82zm6.082 0c-0.487 0-0.927 0.116-1.317 0.349-0.389 0.23-0.694 0.553-0.914 0.971-0.215 0.414-0.322 0.87-0.322 1.367 0 0.783 0.202 1.407 0.606 1.869 0.403 0.46 0.941 0.69 1.613 0.69 0.525 0 0.984-0.194 1.377-0.58-0.108 1.172-0.817 1.788-2.129 1.847l-0.334 0.006v1.258l0.369-0.006c1.155-0.049 2.048-0.434 2.678-1.158s0.945-1.72 0.945-2.986v-0.559c-0.003-0.605-0.112-1.142-0.328-1.611-0.216-0.47-0.518-0.83-0.908-1.08-0.39-0.251-0.835-0.377-1.336-0.377zm-15.074 0.027c-0.769 0.004-1.447 0.177-2.032 0.525-0.581 0.345-1.026 0.834-1.339 1.467-0.31 0.63-0.465 1.357-0.465 2.182v0.543c0 0.929 0.245 1.672 0.736 2.228 0.494 0.557 1.141 0.836 1.941 0.836 0.495 0 0.935-0.111 1.325-0.334 0.393-0.222 0.696-0.533 0.908-0.933 0.216-0.4 0.324-0.848 0.324-1.342 0-0.773-0.194-1.396-0.584-1.869s-0.915-0.709-1.576-0.709c-0.616 0-1.126 0.204-1.529 0.615 0.083-0.612 0.332-1.091 0.746-1.436 0.417-0.344 0.966-0.52 1.648-0.531h0.147v-1.242h-0.25zm18.888 0.078v7.598h1.567v-2.076l-0.158-3.58 2.046 5.656h1.077l2.05-5.662-0.156 3.586v2.076h1.57v-7.598h-2.056l-1.942 5.512-1.951-5.512h-2.047zm-3.826 1.111c0.327 0 0.589 0.141 0.783 0.422 0.195 0.282 0.293 0.68 0.293 1.192v0.621c-0.09 0.177-0.225 0.328-0.402 0.453-0.174 0.125-0.383 0.188-0.627 0.188-0.344 0-0.611-0.133-0.803-0.397-0.188-0.268-0.283-0.609-0.283-1.023 0-0.418 0.098-0.763 0.293-1.038 0.195-0.278 0.443-0.418 0.746-0.418zm-22.5 0.004c0.3653 0 0.6322 0.145 0.8027 0.434 0.174 0.285 0.2617 0.743 0.2617 1.373v1.807c-0.0069 0.595-0.0923 1.035-0.2558 1.324-0.1636 0.289-0.43 0.434-0.7988 0.434-0.3724 0-0.644-0.15-0.8145-0.45-0.167-0.302-0.25-0.763-0.25-1.383v-1.847c0.0104-0.581 0.0986-1.006 0.2656-1.278 0.1705-0.274 0.4342-0.414 0.7891-0.414zm16.43 0c0.365 0 0.634 0.145 0.805 0.434 0.174 0.285 0.259 0.743 0.259 1.373v1.807c-0.007 0.595-0.09 1.035-0.254 1.324-0.163 0.289-0.43 0.434-0.798 0.434-0.373 0-0.644-0.15-0.815-0.45-0.167-0.302-0.25-0.763-0.25-1.383v-1.847c0.011-0.581 0.099-1.006 0.266-1.278 0.17-0.274 0.432-0.414 0.787-0.414zm-10.213 2.612c0.341 0 0.613 0.127 0.814 0.381 0.202 0.254 0.303 0.587 0.303 1.002 0 0.407-0.101 0.738-0.303 0.996-0.198 0.254-0.459 0.381-0.783 0.381-0.358 0-0.637-0.141-0.836-0.422-0.198-0.286-0.297-0.681-0.297-1.186v-0.459c0.094-0.209 0.24-0.377 0.438-0.502 0.198-0.129 0.42-0.191 0.664-0.191zm3.574 0.01v1.216h2.94v-1.216h-2.94z" fill-rule="evenodd" transform="matrix(.26458 0 0 .26458 0 284.3)" fill="#333"/>
 </g>
</svg>
